**kern	**kern	**dynam
*part1	*part1	*part1
*staff2	*staff1	*
*I"Piano	*	*
*clefF4	*clefG2	*
*k[b-e-a-]	*k[b-e-a-]	*
=1	=1	=1
*^	*	*
8E-L	4.EE-]	(4aa- 4ccc 4fff	.
8BB-	.	.	.
8E-J)	.	8ccc) 8fff 8aaa-	.
=	=	=	=
(8BB-L	[4.EE-	(4bb- 4eee- 4ggg	.
8E-	.	.	.
8BB-J	.	8gg 8bb- 8eee-	.
=	=	=	=
8E-L	4.EE-]	4.bb-) 4.ddd 4.fff	.
8BB-	.	.	.
8E-J)	.	.	.
*v	*v	*	*
*	*X8	*
=	=	=
*^	*	*
!	!	!LO:TX:b:i:t=dim.	!
8BB-L	[4.EE-	(4b- 4ee- 4gg	.
8E-	.	.	.
8BB-J	.	8g 8b- 8ee-	.
=	=	=	=
8E-L	4.EE-]	4.b-) 4.dd 4.ff	.
8BB-	.	.	.
8E-J	.	.	.
*	*	*clefF4	*
=	=	=	=
8BB-L	[4.EE-	[4.G [4.B-	pp
8E-	.	.	.
8BB-J	.	.	.
=	=	=	=
8E-L	4.EE-]	4.G] 4.B-]	.
8BB-	.	.	.
8E-J	.	.	.
*v	*v	*	*
*	*clefG2	*
=	=	=
[4.B-^^	[4.d [4.f [4.b-	mf
=	=	=
*-	*-	*-
!!!system-decoration: {(s1,s2)}
